!!!ONB: MCCC : IFC0050_02 : Extracted Monophonic Melody
!!!COM: Chopin, Frédéric
!!!OPR: Mazurkas
!!!OMV: 2
!!!SCT: Op.24
!!!ODT: 1834///
**kern
*thru
*staff1
*Ipiano
*>I
*clefG2
*k[f#c#g#d#]
*c#:
*M3/4
*MM189
=1
4g#
2g#
=2
4g#
2g#
=3
4g#
2g#
=4
4g#
2g#
=5
4g#
4g#
4g#
=6
4g#
4g#
4g#
=7
4g#
4g#
8g#
8g#
=8
12g#
12g#
12g#
4g#
*>A
4g#
=9
8gg#
16r
16aa
4.ff#
8gg#
=10
8.ee
16gg#
4cc#
4ee
=11
8.gg#
16aa
4ff#
4gg#
=12
12ee
12ff#
12gg#
4.cc#
8cc##
=13
8dd#
16r
16ee
4.cc#
8dd#
=14
8.b#
16dd#
4g#
4a
=15
8g#
16r
16f#
4d#
4g#
=16
2c#
*>A
4g#
=17
8gg#
16r
16aa
4.ff#
8gg#
=18
8.ee
16gg#
4cc#
4ee
=19
8.gg#
16aa
4ff#
4gg#
=20
12ee
12ff#
12gg#
4.cc#
8cc##
=21
8dd#
16r
16ee
4.cc#
8dd#
=22
8.b#
16dd#
4g#
4a
=23
8g#
16r
16f#
4d#
4g#
=24
2c#
*>B
4c##
=25
8d#
16r
16f##
4g#
8b#
8dd#
=26
8d#
16r
16f##
8g#
8b#
4dd#
=27
8.cc##
16a#
4cc#
8b#
8g#
=28
12cc##
12a#
12b#
4cc#
8b#
8g#
=29
8d#
16r
16f##
4g#
8b#
8dd#
=30
8d#
16r
16f##
8g#
8b#
4dd#
=31
8cc##
8a#
4cc#
8b#
8g#
=32
8.gg#
16g#
8.gg#
16g#
8.gg#
16g#
=33
8.gg#
16aa
4.ff#
8gg#
=34
8.ee
16gg#
4cc#
4ee
=35
8gg#
16r
16aa
4ff#
4gg#
=36
12ee
12ff#
12gg#
4.cc#
8cc##
=37
8dd#
8ee
4cc#
4dd#
=38
8b#
8dd#
8g#
8r
4a
=39
8g#
16r
16f#
4d#
4g#
=40
2c#
*>B
4c##
=41
8d#
16r
16f##
4g#
8b#
8dd#
=42
8d#
16r
16f##
8g#
8b#
4dd#
=43
8.cc##
16a#
4cc#
8b#
8g#
=44
12cc##
12a#
12b#
4cc#
8b#
8g#
=45
8d#
16r
16f##
4g#
8b#
8dd#
=46
8d#
16r
16f##
8g#
8b#
4dd#
=47
8cc##
8a#
4cc#
8b#
8g#
=48
8.gg#
16g#
8.gg#
16g#
8.gg#
16g#
=49
8.gg#
16aa
4.ff#
8gg#
=50
8.ee
16gg#
4cc#
4ee
=51
8gg#
16r
16aa
4ff#
4gg#
=52
12ee
12ff#
12gg#
4.cc#
8cc##
=53
8dd#
8ee
4cc#
4dd#
=54
8b#
8dd#
8g#
8r
4a
=55
8g#
16r
16f#
4d#
4g#
=56
2c#
*>C
4c#
=57
8cc#
8dd#
4.ee
8cc#
=58
8b
8g#
2e
=59
8cc#
8dd#
4ee
8ee
8cc#
=60
8b
8g#
[2e
=61
8e]
8a
2g#
=62
8e
8a
2g#
=63
8e
8a
4g#
4g#
=64
8e
8a
4g#
4r
=65
8ee#
8ff##
4.gg#
8ee#
=66
8dd#
8b#
2g#
=67
8ee#
8ff##
4gg#
8gg#
8ee#
=68
8dd#
8b#
[2g#
=69
8g#]
8cc#
2b#
=70
8g#
8cc#
2b#
=71
8g#
8cc#
4b#
4b#
=72
8g#
8cc#
4b#
8d#
8c#
=73
4g#
2g#
=74
4g#
2g#
=75
4g#
2g#
=76
4g#
2g#
=77
4g#
4g#
4g#
=78
4g#
4g#
4g#
=79
4g#
4g#
8g#
8g#
=80
12g#
12g#
12g#
4g#
4g#
=81
8gg#
16r
16aa
4.ff#
8gg#
=82
8.ee
16gg#
4cc#
4ee
=83
8.gg#
16aa
4ff#
4gg#
=84
12ee
12ff#
12gg#
4.cc#
8cc##
=85
8dd#
16r
16ee
4.cc#
8dd#
=86
8.b#
16dd#
4g#
4a
=87
8g#
16r
16f#
4d#
4g#
=88
2c#
4g#
=89
8gg#
8aa
4ff#
4gg#
=90
8ee
8gg#
4cc#
4ee
=91
12gg#
12aa
24r
24gg#
4dd#
4gg#
=92
12ee
12ff#
12gg#
4.cc#
8cc##
=93
8dd#
16r
16ee
4cc#
4dd#
=94
8b#
16r
16dd#
4g#
4a
=95
8g#
16r
16f#
4d#
4g#
=96
2.c#
==
*-
